!!!OTL: Jieer ge
!!!ARE: Asia, China,ˇHenan, Lingbao
!! IV, 164
!!!SCT: C1665
!!!YEM: Copyright 1995, estate of Helmut Schaffrath.
**kern
*ICvox
*Ivox
*M4/4
*k[]
*C:
{8a
16a
16cc
8dd
16cc
16a
2g
=1
8a
16a
16cc
2.dd}
=2
{8dd
16cc
16a
8g
8cc
8dd
16cc
16a
4g}
=3
{8g
8g
8ee
[8dd
2dd]
=4
8g
8a
8cc
8a
2g}
=5
{8a
16a
16cc
8cc
8a
2g
=6
8g
8g
8a
[8dd
2dd]}
=7
{8cc
8a
8g
8dd
8dd
16cc
16a
[4g
=8
2g]
2r}
==
!!!AGN: Shange. NannÅ qing
!!!AMT: simple quadruple
!!!AIN: vox
!!!EED: Helmut Schaffrath
!!!EEV: 1.0
*-
!!!ONB: Tied note syntax fixed by Craig Sapp, 2004/05/03/
